apps/site/public/icons/companies/about/fathom.svg

<svg xmlns="http://www.w3.org/2000/svg" fill="none" viewBox="0 0 139 31" height="31" width="139">
<path fill="white" d="M104.055 22.9279C104.055 24.6951 104.022 26.4622 104.081 28.2294C104.094 28.6272 104.387 29.0119 104.563 29.3967C104.615 29.5075 104.778 29.5727 104.818 29.6836C104.922 29.9835 105.091 30.3226 105.02 30.59C104.981 30.7335 104.492 30.8117 104.211 30.8117C103.566 30.8117 102.913 30.7139 102.268 30.7074C101.674 30.7074 101.075 30.7987 100.481 30.8052C100.253 30.8052 99.9138 30.7269 99.816 30.5704C99.7182 30.4074 99.7573 30.0031 99.8942 29.8727C100.918 28.9076 100.931 27.649 100.938 26.4035C100.957 22.9409 100.944 19.4848 100.931 16.0222C100.931 15.5331 100.84 15.044 100.788 14.555C100.722 13.9811 100.514 13.5181 99.9529 13.2312C99.7834 13.1464 99.5812 12.853 99.6138 12.6965C99.6595 12.4878 99.8747 12.24 100.083 12.1553C101.048 11.777 102.033 11.4445 103.018 11.1119C103.689 10.8837 104.048 11.1836 104.042 11.914C104.042 12.1553 104.113 12.3965 104.146 12.6378C104.4 12.553 104.713 12.5335 104.902 12.3704C106.722 10.825 108.854 10.8119 110.967 11.3075C112.434 11.6531 113.556 12.7161 114.469 13.929C115.114 14.7897 115.173 14.7897 115.858 13.9159C117.083 12.3378 118.583 11.2032 120.663 11.0597C123.617 10.8511 126.167 11.8683 127.615 14.7441C128.482 16.4656 128.541 18.3045 128.593 20.1369C128.665 22.7648 128.626 25.3928 128.613 28.0207C128.613 28.6207 128.71 29.1163 129.186 29.5597C129.402 29.7618 129.402 30.1987 129.499 30.5313C129.199 30.6096 128.899 30.7465 128.599 30.7595C127.432 30.7921 126.265 30.7987 125.098 30.7791C124.791 30.7791 124.485 30.6422 124.178 30.5639C124.296 30.2705 124.328 29.8662 124.543 29.7031C125.45 29.0054 125.424 27.9881 125.424 27.0622C125.437 23.6321 125.391 20.2021 125.293 16.7721C125.241 15.0832 124.433 13.7007 122.828 13.0943C120.37 12.1618 118.159 12.7161 116.829 15.2527C116.379 16.107 116.255 16.9547 116.255 17.8676C116.255 21.2194 116.268 24.5777 116.255 27.9294C116.255 28.5881 116.36 29.1684 116.92 29.5858C117.038 29.6771 117.155 29.814 117.201 29.9509C117.279 30.1792 117.39 30.4596 117.318 30.6552C117.273 30.7791 116.92 30.8443 116.699 30.8443C115.323 30.8443 113.953 30.8247 112.578 30.7791C112.375 30.7726 112.069 30.6291 112.017 30.4791C111.945 30.277 111.991 29.9053 112.141 29.7749C113.223 28.7837 113.236 27.4665 113.262 26.1753C113.301 23.8343 113.321 21.4933 113.275 19.1522C113.256 18.1219 113.132 17.0851 112.923 16.0744C112.499 14.0137 110.83 12.7878 108.717 12.703C106.65 12.6248 105.209 13.4725 104.348 15.3179C104.185 15.6635 104.1 16.0613 104.074 16.4395C104.002 17.5285 103.957 18.6175 103.931 19.713C103.911 20.776 103.931 21.8454 103.931 22.9148C103.97 22.9148 104.002 22.9148 104.042 22.9148L104.055 22.9279Z"></path>
<path fill="white" d="M56.4254 22.8953C56.4254 24.4799 56.4384 26.071 56.4254 27.6556C56.4188 28.3403 56.5688 28.9402 57.0644 29.4358C57.1883 29.5662 57.3253 29.7097 57.3774 29.8792C57.4557 30.1336 57.56 30.44 57.4752 30.6618C57.4296 30.7791 57.0253 30.7987 56.7775 30.7987C55.532 30.8183 54.2865 30.8378 53.041 30.8248C52.7801 30.8248 52.3628 30.7465 52.3041 30.5965C52.2193 30.3683 52.2911 29.9575 52.4606 29.7814C53.2105 29.0119 53.4322 28.1055 53.4322 27.0687C53.4192 19.4718 53.4127 11.8749 53.4192 4.27797C53.4192 3.36504 53.3279 2.59557 52.3693 2.1391C51.8737 1.90435 51.9389 1.30442 52.4606 1.13488C53.5431 0.776223 54.6451 0.463217 55.7472 0.169774C56.2363 0.0393549 56.5232 0.411049 56.5167 1.06314C56.4841 3.61284 56.4514 6.16253 56.4319 8.7057C56.4188 9.9512 56.4319 11.1967 56.4449 12.4422C56.4449 12.6052 56.4971 12.8465 56.608 12.9117C56.7123 12.9769 56.947 12.8856 57.0905 12.8074C57.6578 12.4879 58.1925 12.1096 58.7664 11.8162C60.7031 10.825 62.842 10.7076 64.7722 11.3793C67.9022 12.4748 69.9694 14.5811 70.1324 18.3176C70.2563 21.1477 70.165 23.9908 70.165 26.8274C70.165 27.9099 70.2498 28.9533 71.1105 29.7814C71.2866 29.951 71.3453 30.3748 71.2605 30.6161C71.2084 30.7596 70.778 30.8248 70.5171 30.8313C69.2456 30.8509 67.974 30.8443 66.7089 30.8248C66.4937 30.8248 66.1416 30.7726 66.0959 30.6487C66.0242 30.4531 66.0568 30.0879 66.2003 29.951C67.198 29.025 67.1915 27.8317 67.1784 26.6253C67.1589 23.893 67.211 21.1607 67.1328 18.4284C67.0806 16.7526 66.5589 15.2071 65.2547 14.0268C64.5179 13.3617 63.7027 12.8987 62.6724 12.9117C61.6421 12.9313 60.6118 12.7878 59.6011 13.2443C57.5078 14.1963 56.6014 15.9114 56.4514 18.0567C56.3406 19.6609 56.4319 21.2846 56.4319 22.8953H56.4254Z"></path>
<path fill="white" d="M2.28176 15.4875C2.28176 11.4054 2.27524 7.31674 2.28828 3.23462C2.28828 2.47167 2.14482 1.87826 1.38187 1.50005C1.16668 1.38919 1.10799 0.958808 0.97105 0.684928C1.23189 0.567551 1.49273 0.35888 1.75356 0.352359C2.52956 0.332796 3.31207 0.42409 4.09459 0.430611C8.41798 0.437132 12.7414 0.430611 17.0713 0.430611C18.082 0.430611 18.3755 0.704491 18.395 1.71524C18.4081 2.34125 18.4407 2.96726 18.395 3.58675C18.382 3.82803 18.1798 4.05626 18.0625 4.28449C17.8147 4.13451 17.5604 3.98453 17.3126 3.83455C17.293 3.82151 17.28 3.7889 17.28 3.76934C16.9865 2.42602 16.0149 2.24996 14.8411 2.26952C12.4218 2.30865 9.99605 2.28256 7.57026 2.28256C7.23117 2.28256 6.89208 2.26952 6.55951 2.23039C5.69874 2.13258 5.47051 2.31517 5.45747 3.17593C5.44442 3.74978 5.45747 4.32362 5.45747 4.89094C5.45747 7.46672 5.45747 10.0425 5.45747 12.6183C5.45747 13.5312 5.57484 13.7008 6.46821 13.7203C8.60057 13.7725 10.7394 13.7986 12.8718 13.8116C13.8434 13.8116 14.4499 13.2182 14.8868 12.4292C15.0237 12.1814 15.0759 11.8879 15.2128 11.6336C15.2911 11.4901 15.4867 11.275 15.5649 11.301C15.7345 11.3597 15.9562 11.5293 15.9823 11.6793C16.0475 12.0575 16.0149 12.4552 16.0149 12.84C16.0149 13.7986 16.0345 14.7571 16.0018 15.7157C15.9888 16.0157 15.8193 16.3026 15.7214 16.5961C15.4606 16.4656 15.0824 16.4069 14.952 16.1918C14.5216 15.481 13.9086 15.3832 13.1522 15.3832C10.8373 15.3832 8.51579 15.331 6.20085 15.2919C5.54876 15.2788 5.45095 15.6831 5.45095 16.2178C5.45747 19.55 5.45095 22.8757 5.46399 26.2079C5.46399 26.7818 5.56832 27.3491 5.54876 27.9164C5.52268 28.7642 5.82264 29.4163 6.48126 29.9575C6.67688 30.1205 6.72905 30.4661 6.83991 30.727C6.55299 30.7857 6.27259 30.89 5.98566 30.89C4.66191 30.89 3.33816 30.8769 2.02092 30.8313C1.66227 30.8183 1.31666 30.6748 0.958008 30.59C1.13407 30.264 1.23841 29.8401 1.50577 29.638C2.09917 29.2011 2.2948 28.6729 2.28828 27.9621C2.26872 23.8017 2.28176 19.6348 2.28176 15.4745V15.4875Z"></path>
<path fill="white" d="M33.4264 22.341C33.4264 24.2516 33.4199 25.8101 33.4264 27.3752C33.4264 28.2946 33.4785 29.1945 34.3002 29.8466C34.4762 29.9901 34.4828 30.3487 34.5675 30.603C34.3132 30.6813 34.0524 30.8313 33.7981 30.8313C33.1264 30.8313 32.4482 30.753 31.7766 30.7269C30.6093 30.6748 30.2898 30.3292 30.2768 29.1554C30.2768 28.9467 30.1529 28.7381 30.0876 28.5294C29.8855 28.6207 29.6377 28.6663 29.4877 28.8163C28.3335 29.9575 26.9054 30.4726 25.3274 30.5118C24.0297 30.5444 22.7255 30.5052 21.4343 30.3683C19.8628 30.1987 18.1934 28.086 18.0695 26.3123C17.9391 24.4473 18.7347 23.0257 20.2019 21.9693C22.2364 20.5021 24.5383 19.6283 26.9576 19.0284C27.8379 18.8066 28.7117 18.5262 29.5855 18.2784C30.0876 18.135 30.2898 17.8024 30.2768 17.2873C30.2311 14.9984 28.2618 12.8856 26.0121 12.7682C25.1839 12.7226 24.3231 12.6509 23.5145 12.7878C21.9691 13.0486 20.6649 13.7529 19.9867 15.2853C19.915 15.4484 19.8758 15.6831 19.7454 15.7614C19.5498 15.8853 19.2629 15.9896 19.0542 15.9439C18.9042 15.9048 18.7151 15.5983 18.7216 15.4157C18.7412 14.7963 18.7934 14.1702 18.9238 13.5638C18.9825 13.2899 19.2107 12.9573 19.452 12.84C21.5256 11.8618 23.5928 10.8576 25.986 11.0141C27.4727 11.1119 28.94 11.2489 30.2768 12.0053C31.6657 12.7943 32.4874 13.9746 32.9634 15.4875C33.7068 17.8611 33.2633 20.2934 33.4068 22.3475L33.4264 22.341ZM30.2898 23.1431C30.2898 23.1431 30.2768 23.1431 30.2702 23.1431C30.2702 22.2106 30.2833 21.2716 30.2637 20.3391C30.2572 19.9543 30.1463 19.5566 29.6116 19.7522C27.7336 20.4434 25.849 21.0955 24.0036 21.8715C23.3254 22.1519 22.7451 22.6931 22.1712 23.1692C20.9714 24.1669 20.9844 25.5363 21.3561 26.8209C21.7213 28.0925 22.9342 28.6076 24.134 28.8098C26.3511 29.1815 28.2292 28.3924 29.7551 26.7883C30.042 26.4818 30.2246 25.9862 30.2637 25.5558C30.342 24.7603 30.2898 23.9452 30.2898 23.1431Z"></path>
<path fill="white" d="M75.4665 21.7019C75.4208 17.0981 78.0031 13.3225 81.4266 11.9401C83.6307 11.0532 85.8609 10.7728 88.065 11.2945C91.0711 12.0053 93.5752 13.6094 94.8533 16.6286C96.1575 19.713 95.9162 22.7909 94.3642 25.6471C92.897 28.3533 90.5103 29.9901 87.3868 30.4857C85.8152 30.7335 84.2437 30.6878 82.7439 30.3292C80.2659 29.7357 78.2248 28.4511 76.9272 26.1166C75.9947 24.4342 75.4991 22.6801 75.46 21.6954L75.4665 21.7019ZM78.5248 19.6478C78.6357 24.0364 79.8486 26.9383 83.2199 28.575C84.9545 29.4162 86.7543 29.4423 88.4953 28.6141C91.1037 27.3752 92.2123 25.0472 92.597 22.3671C92.9231 20.1239 92.447 17.9459 91.2733 15.9961C90.8299 15.2592 90.1647 14.6397 89.5126 14.0529C88.091 12.7682 86.3304 12.6508 84.5176 12.7356C82.47 12.8334 80.9245 13.8246 79.8942 15.5005C78.9748 16.9938 78.4009 18.6566 78.5118 19.6413L78.5248 19.6478Z"></path>
<path fill="white" d="M43.4548 20.0065C43.4548 22.0345 43.4091 24.0691 43.4809 26.0906C43.5069 26.8209 43.7156 27.5773 44.0156 28.249C44.3612 29.025 45.1567 29.2206 45.9262 28.8554C46.8196 28.4316 47.4 27.7404 47.726 26.8079C47.8173 26.5405 48.0977 26.3449 48.2868 26.1101C48.4172 26.4231 48.5672 26.7231 48.665 27.0426C48.7041 27.1796 48.6389 27.3491 48.6063 27.5056C48.4824 28.1251 48.5607 28.9598 48.189 29.3119C47.4978 29.964 46.637 30.5639 45.5676 30.5248C44.7655 30.4922 43.9569 30.4792 43.1548 30.3813C42.8483 30.3422 42.5223 30.1401 42.2745 29.9314C40.9507 28.8424 40.4682 27.3882 40.4682 25.7123C40.4682 21.8389 40.4551 17.9589 40.4421 14.0855C40.4421 12.8074 40.3769 12.8139 39.1249 12.7291C38.6749 12.6965 38.1598 12.4878 37.8272 12.1879C37.3381 11.751 37.5142 11.1837 38.1598 11.0141C38.5771 10.9033 39.0336 10.9098 39.4705 10.9033C40.0052 10.9033 40.3247 10.6881 40.3117 10.1273C40.2856 9.01217 40.2465 7.89057 40.2139 6.77549C40.1943 6.20164 39.9921 5.73866 39.5487 5.33436C39.3596 5.15829 39.2292 4.77355 39.2879 4.52576C39.327 4.36273 39.7183 4.24536 39.9726 4.16059C40.7355 3.89975 41.5115 3.6976 42.2614 3.4172C43.207 3.05854 43.4874 3.24113 43.4809 4.27144C43.4678 6.11687 43.4678 7.9623 43.4678 9.81425C43.4678 10.7076 43.6178 10.8641 44.5046 10.8837C45.3654 10.8967 46.2262 10.8837 47.0804 10.8902C47.2891 10.8902 47.4978 10.8772 47.7064 10.8967C48.352 10.9554 48.7041 11.3076 48.6781 11.8879C48.652 12.5009 48.2803 12.7552 47.6934 12.7552C46.5979 12.7552 45.5024 12.7487 44.4134 12.7552C43.5656 12.7552 43.4548 12.853 43.4548 13.6877C43.4483 15.794 43.4548 17.9002 43.4548 20.0065Z"></path>
<path fill="white" d="M138.785 28.5294C138.785 29.6379 137.702 30.753 136.627 30.6748C135.329 30.5835 134.546 29.7292 134.449 28.5424C134.357 27.4665 135.492 26.3057 136.522 26.3057C137.709 26.3057 138.791 27.3686 138.785 28.5294Z"></path>
</svg>

<svg xmlns="http://www.w3.org/2000/svg" width="139" height="31" fill="none" viewBox="0 0 139 31"><path fill="#fff" d="M104.055 22.928c0 1.767-.033 3.534.026 5.301.013.398.306.783.482 1.168.052.11.215.176.255.287.104.3.273.639.202.906-.039.143-.528.222-.809.222-.645 0-1.298-.098-1.943-.105-.594 0-1.193.092-1.787.098-.228 0-.567-.078-.665-.235-.098-.163-.059-.567.078-.697 1.024-.965 1.037-2.224 1.044-3.47.019-3.462.006-6.918-.007-10.38 0-.49-.091-.979-.143-1.468-.066-.574-.274-1.037-.835-1.324-.17-.085-.372-.378-.34-.534.046-.21.262-.457.47-.542.965-.378 1.95-.71 2.935-1.043.671-.228 1.03.072 1.024.802 0 .241.071.482.104.724.254-.085.567-.104.756-.268 1.82-1.545 3.952-1.558 6.065-1.062 1.467.345 2.589 1.408 3.502 2.621.645.86.704.86 1.389-.013 1.225-1.578 2.725-2.713 4.805-2.856 2.954-.209 5.504.808 6.952 3.684.867 1.722.926 3.56.978 5.393.072 2.628.033 5.256.02 7.884 0 .6.097 1.095.573 1.539.216.202.216.639.313.971-.3.079-.6.216-.9.229q-1.75.048-3.501.02c-.307 0-.613-.138-.92-.216.118-.294.15-.698.365-.86.907-.699.881-1.716.881-2.642q.018-5.145-.131-10.29c-.052-1.689-.86-3.071-2.465-3.678-2.458-.932-4.669-.378-5.999 2.159-.45.854-.574 1.702-.574 2.615 0 3.351.013 6.71 0 10.061 0 .66.105 1.24.665 1.657a.85.85 0 0 1 .281.365c.078.228.189.509.117.704-.045.124-.398.19-.619.19-1.376 0-2.746-.02-4.121-.066-.203-.006-.509-.15-.561-.3-.072-.202-.026-.574.124-.704 1.082-.991 1.095-2.308 1.121-3.6.039-2.34.059-4.682.013-7.023a17 17 0 0 0-.352-3.078c-.424-2.06-2.093-3.286-4.206-3.371-2.067-.078-3.508.77-4.369 2.615a3.2 3.2 0 0 0-.274 1.121 77 77 0 0 0-.143 3.274c-.02 1.063 0 2.132 0 3.202h.111zm-47.63-.033c0 1.585.013 3.176 0 4.76-.006.685.144 1.285.64 1.78.123.131.26.275.312.444.079.255.183.561.098.783-.045.117-.45.137-.697.137-1.246.02-2.492.039-3.737.026-.26 0-.678-.078-.737-.229-.085-.228-.013-.639.157-.815.75-.77.971-1.675.971-2.712-.013-7.597-.02-15.194-.013-22.791 0-.913-.091-1.682-1.05-2.139-.495-.235-.43-.835.092-1.004A58 58 0 0 1 55.747.17c.49-.13.776.241.77.893-.033 2.55-.066 5.1-.085 7.643-.013 1.245 0 2.49.013 3.736 0 .163.052.405.163.47.104.065.339-.026.483-.105.567-.32 1.102-.697 1.675-.99 1.937-.992 4.076-1.11 6.006-.438 3.13 1.096 5.197 3.202 5.36 6.939.124 2.83.033 5.673.033 8.51 0 1.082.085 2.125.945 2.953.177.17.235.594.15.835-.052.144-.482.209-.743.215-1.271.02-2.543.013-3.808-.006-.215 0-.567-.052-.613-.176-.072-.196-.04-.561.104-.698.998-.926.992-2.12.978-3.326-.02-2.732.033-5.464-.045-8.197-.052-1.675-.574-3.22-1.878-4.401-.737-.665-1.552-1.128-2.583-1.115-1.03.02-2.06-.124-3.07.332-2.094.952-3 2.667-3.15 4.813-.111 1.604-.02 3.228-.02 4.838zM2.282 15.488c0-4.083-.007-8.171.006-12.253 0-.763-.143-1.357-.906-1.735-.215-.11-.274-.541-.41-.815.26-.117.52-.326.782-.333.776-.02 1.558.072 2.34.079 4.324.006 8.647 0 12.977 0 1.011 0 1.304.273 1.324 1.284.013.626.046 1.252 0 1.872-.013.241-.215.47-.332.697-.248-.15-.503-.3-.75-.45-.02-.012-.033-.045-.033-.065-.294-1.343-1.265-1.519-2.439-1.5-2.42.04-4.845.014-7.27.014A9 9 0 0 1 6.56 2.23c-.861-.097-1.09.085-1.103.946-.013.574 0 1.148 0 1.715v7.727c0 .913.118 1.083 1.011 1.102 2.133.053 4.271.079 6.404.092.971 0 1.578-.594 2.015-1.383.137-.248.189-.541.326-.795.078-.144.274-.359.352-.333.17.059.391.228.417.378.066.378.033.776.033 1.161 0 .959.02 1.917-.013 2.876-.013.3-.183.587-.28.88-.261-.13-.64-.19-.77-.404-.43-.711-1.043-.809-1.8-.809-2.315 0-4.636-.052-6.951-.091-.652-.013-.75.391-.75.926.006 3.332 0 6.658.013 9.99 0 .574.104 1.141.085 1.708-.026.848.274 1.5.932 2.041.196.163.248.51.359.77-.287.059-.567.163-.854.163-1.324 0-2.648-.013-3.965-.059-.359-.013-.704-.156-1.063-.241.176-.326.28-.75.548-.952.593-.437.789-.965.782-1.676-.02-4.16-.006-8.327-.006-12.487zm31.144 6.853c0 1.91-.006 3.47 0 5.034 0 .92.052 1.82.874 2.472.176.143.183.502.268.756-.255.078-.516.228-.77.228-.672 0-1.35-.078-2.021-.104-1.168-.052-1.487-.398-1.5-1.572 0-.208-.124-.417-.19-.626-.201.092-.45.137-.6.287-1.153 1.142-2.582 1.657-4.16 1.696a30 30 0 0 1-3.893-.144c-1.571-.17-3.24-2.282-3.364-4.056-.13-1.865.665-3.286 2.132-4.343 2.034-1.467 4.336-2.34 6.756-2.94.88-.222 1.754-.503 2.628-.75.502-.144.704-.477.69-.992-.045-2.289-2.014-4.401-4.264-4.519-.828-.045-1.689-.117-2.497.02-1.546.26-2.85.965-3.528 2.497-.072.163-.111.398-.242.476-.195.124-.482.229-.69.183-.15-.04-.34-.346-.333-.528.02-.62.071-1.246.202-1.852.059-.274.287-.607.528-.724 2.074-.978 4.14-1.982 6.534-1.826 1.487.098 2.954.235 4.29.991 1.39.79 2.211 1.97 2.687 3.483.744 2.373.3 4.805.444 6.86zm-3.136.802h-.02c0-.932.013-1.871-.006-2.804-.007-.385-.118-.782-.652-.587-1.878.691-3.763 1.344-5.608 2.12-.679.28-1.259.821-1.833 1.297-1.2.998-1.187 2.367-.815 3.652.365 1.271 1.578 1.787 2.778 1.989 2.217.372 4.095-.418 5.621-2.022.287-.306.47-.802.509-1.232.078-.796.026-1.61.026-2.413m45.177-1.441c-.046-4.604 2.536-8.38 5.96-9.762 2.204-.887 4.434-1.167 6.638-.646 3.006.711 5.51 2.315 6.788 5.335 1.305 3.084 1.063 6.162-.489 9.018-1.467 2.706-3.854 4.343-6.977 4.839-1.572.247-3.143.202-4.643-.157-2.478-.593-4.52-1.878-5.817-4.212-.932-1.683-1.428-3.437-1.467-4.422zm3.058-2.054c.11 4.388 1.324 7.29 4.695 8.927 1.734.841 3.534.867 5.275.04 2.609-1.24 3.717-3.568 4.102-6.248.326-2.243-.15-4.421-1.324-6.37-.443-.738-1.108-1.357-1.76-1.944-1.422-1.285-3.183-1.402-4.995-1.317-2.048.097-3.594 1.089-4.624 2.765-.92 1.493-1.493 3.156-1.382 4.14zm-35.07.359c0 2.027-.046 4.062.026 6.084.026.73.235 1.486.535 2.158.345.776 1.14.972 1.91.606.894-.423 1.474-1.115 1.8-2.047.091-.267.372-.463.56-.698.131.313.281.613.379.933.04.137-.026.306-.059.463-.124.62-.045 1.454-.417 1.806-.691.652-1.552 1.252-2.621 1.213-.802-.033-1.611-.046-2.413-.144-.307-.039-.633-.24-.88-.45-1.324-1.089-1.807-2.543-1.807-4.219 0-3.873-.013-7.753-.026-11.626 0-1.279-.065-1.272-1.317-1.357a2.3 2.3 0 0 1-1.298-.541c-.489-.437-.313-1.004.333-1.174.417-.11.874-.104 1.31-.11.535 0 .855-.216.842-.777-.026-1.115-.066-2.236-.098-3.352a1.93 1.93 0 0 0-.665-1.44c-.19-.177-.32-.561-.261-.81.039-.162.43-.28.685-.364.763-.261 1.538-.463 2.288-.744.946-.358 1.226-.176 1.22.854-.013 1.846-.013 3.691-.013 5.543 0 .894.15 1.05 1.037 1.07.86.013 1.721 0 2.575.006.21 0 .418-.013.626.007.646.058.998.41.972.99-.026.614-.398.868-.985.868-1.095 0-2.19-.006-3.28 0-.847 0-.958.098-.958.933-.007 2.106 0 4.212 0 6.318m95.33 8.524c0 1.108-1.083 2.223-2.158 2.145-1.298-.091-2.081-.946-2.178-2.133-.092-1.076 1.043-2.236 2.073-2.236 1.187 0 2.269 1.063 2.263 2.223"/></svg>
